(Generated with: DXF2GCODE, Version: Py3.9.2 PyQt5.15.4, Date: $Date: 2022-02-26 15:29 CET $)
(Created from file: E:/Daniel DiscoA/Documents/UNAL/RoboticaUN2022-2-dpenap-jodiazro/Laboratorio 5/Dibujos.dxf)
(Output format description: G-CODE for LinuxCNC)
(Time: Fri Oct 28 00:13:07 2022)
G21 (Units in millimeters)
G90 (Absolute programming)
G64 (Default cutting) G17 (XY plane) G40 (Cancel radius comp.) G49 (Cancel length comp.)
G0 Z  20.000 

(*** LAYER: 0 ***)
T1 M6
S6000

(* SHAPE Nr: 16 *) (LETRA J)
G0 X 289.865 Y -37.016
M3 M8
G0 Z   5.000 
F150
G1 Z  -1.500
F400
G1 X 264.865 Y -37.016
G2 X 259.865 Y -32.016 I   0.000 J   5.000 (Arco CW con centro de offset I(X) J(Y))
G1 X 259.865 Y -17.016
F150
G1 Z  -3.000
F400
G1 X 259.865 Y -32.016
G3 X 264.865 Y -37.016 I   5.000 J   0.000 (arco CCW)
G1 X 289.865 Y -37.016
F150
G1 Z   5.000
G0 Z  20.000 
M9 M5

(* SHAPE Nr: 10 *) (LETRA D)
G0 X 259.865 Y -47.016
M3 M8
G0 Z   5.000 
G1 Z  -1.500
F400
G1 X 289.865 Y -47.016
G1 X 289.865 Y -62.016
G2 X 284.865 Y -67.016 I  -5.000 J   0.000
G1 X 264.865 Y -67.016
G2 X 259.865 Y -62.016 I   0.000 J   5.000
G1 X 259.865 Y -47.016
F150
G1 Z  -3.000
F400
G1 X 289.865 Y -47.016
G1 X 289.865 Y -62.016
G2 X 284.865 Y -67.016 I  -5.000 J   0.000
G1 X 264.865 Y -67.016
G2 X 259.865 Y -62.016 I   0.000 J   5.000
G1 X 259.865 Y -47.016
F150
G1 Z   5.000
G0 Z  20.000 
M9 M5

(* SHAPE Nr: 12 *) (LINEA 1)
G0 X 212.701 Y 188.059
M3 M8
G0 Z   5.000 
G1 Z  -1.500
F400
G1 X 141.990 Y 258.769
F150
G1 Z  -3.000
F400
G1 X 212.701 Y 188.059
F150
G1 Z   5.000
G0 Z  20.000 
M9 M5

(* SHAPE Nr: 13 *) (LINEA 2)
G0 X 134.919 Y 251.698
M3 M8
G0 Z   5.000 
G1 Z  -1.500
F400
G1 X 205.630 Y 180.988
F150
G1 Z  -3.000
F400
G1 X 134.919 Y 251.698
F150
G1 Z   5.000
G0 Z  20.000 
M9 M5

(* SHAPE Nr: 14 *) (LINEA 3)
G0 X 198.559 Y 173.916
M3 M8
G0 Z   5.000 
G1 Z  -1.500
F400
G1 X 127.848 Y 244.627
F150
G1 Z  -3.000
F400
G1 X 198.559 Y 173.916
F150
G1 Z   5.000
G0 Z  20.000 
M9 M5

(* SHAPE Nr: 1 *) (TRIANGULO)
G0 X 230.000 Y 150.000
M3 M8
G0 Z   5.000 
G1 Z  -1.500
F400
G1 X 264.641 Y 130.000
G1 X 230.000 Y 110.000
G1 X 230.000 Y 150.000
F150
G1 Z  -3.000
F400
G1 X 264.641 Y 130.000
G1 X 230.000 Y 110.000
G1 X 230.000 Y 150.000
F150
G1 Z   5.000
G0 Z  20.000 
M9 M5

(* SHAPE Nr: 2 *) (CUADRADO)
G0 X 247.449 Y  97.080
M3 M8
G0 Z   5.000 
G1 Z  -1.500
F400
G1 X 287.449 Y  97.080
G1 X 287.449 Y  57.080
G1 X 247.449 Y  57.080
G1 X 247.449 Y  97.080
F150
G1 Z  -3.000
F400
G1 X 287.449 Y  97.080
G1 X 287.449 Y  57.080
G1 X 247.449 Y  57.080
G1 X 247.449 Y  97.080
F150
G1 Z   5.000
G0 Z  20.000 
M9 M5

(* SHAPE Nr: 0 *) (CIRCULO)
G0 X 290.861 Y  37.023
M3 M8
G0 Z   5.000 
G1 Z  -1.500
F400
G2 X 262.576 Y   8.738 I -14.142 J -14.142
G2 X 290.861 Y  37.023 I  14.142 J  14.142
F150
G1 Z  -3.000
F400
G2 X 262.576 Y   8.738 I -14.142 J -14.142
G2 X 290.861 Y  37.023 I  14.142 J  14.142
F150
G1 Z   5.000
G0 Z  20.000 
M9 M5

(***PUNTOS***)

(* SHAPE Nr: 5 *) 
G0 X 240.198 Y-129.894


(* SHAPE Nr: 6 *)
G0 X 255.430 Y-150.859


(* SHAPE Nr: 9 *)
G0 X 215.552 Y-137.902


(* SHAPE Nr: 7 *)
G0 X 240.198 Y-171.824


(* SHAPE Nr: 8 *)
G0 X 215.552 Y-163.816


(***DIBUJO GRACIOSO***)

(* SHAPE Nr: 3 *) (INTERIOR)
G0 X 238.108 Y-108.869
M3 M8
G0 Z   5.000 
G1 Z  -1.500
F400
G1 X 238.108 Y-102.303
G1 X 238.108 Y -95.736
G3 X 250.968 Y -99.688 I  14.361 J  23.835
G1 X 256.318 Y -99.688
G3 X 254.374 Y -86.314 I -34.601 J   1.796
G1 X 262.113 Y -86.314
G3 X 259.620 Y -99.039 I  38.560 J -14.164
G2 X 273.863 Y -96.011 I   9.615 J -10.211
G2 X 277.786 Y-102.303 I  -2.784 J  -6.105
G2 X 273.863 Y-108.595 I  -6.707 J  -0.187
G2 X 259.620 Y-105.566 I  -4.629 J  13.239
G3 X 262.113 Y-118.291 I  41.053 J   1.438
G1 X 254.374 Y-118.291
G3 X 256.318 Y-104.918 I -32.656 J  11.577
G1 X 250.968 Y-104.918
G3 X 238.108 Y-108.869 I   1.501 J -27.786
F150
G1 Z  -3.000
F400
G1 X 238.108 Y-102.303
G1 X 238.108 Y -95.736
G3 X 250.968 Y -99.688 I  14.361 J  23.835
G1 X 256.318 Y -99.688
G3 X 254.374 Y -86.314 I -34.601 J   1.796
G1 X 262.113 Y -86.314
G3 X 259.620 Y -99.039 I  38.560 J -14.164
G2 X 273.863 Y -96.011 I   9.615 J -10.211
G2 X 277.786 Y-102.303 I  -2.784 J  -6.105
G2 X 273.863 Y-108.595 I  -6.707 J  -0.187
G2 X 259.620 Y-105.566 I  -4.629 J  13.239
G3 X 262.113 Y-118.291 I  41.053 J   1.438
G1 X 254.374 Y-118.291
G3 X 256.318 Y-104.918 I -32.656 J  11.577
G1 X 250.968 Y-104.918
G3 X 238.108 Y-108.869 I   1.501 J -27.786
F150
G1 Z   5.000
G0 Z  20.000 
M9 M5

(* SHAPE Nr: 4 *)(EXTERIOR)
G0 X 262.263 Y-102.303
M3 M8
G0 Z   5.000 
G1 Z  -1.500
F400
G2 X 269.747 Y -98.866 I   7.117 J  -5.631
G2 X 273.649 Y-102.303 I   0.358 J  -3.527
G2 X 269.747 Y-105.740 I  -3.544 J   0.090
G2 X 262.263 Y-102.303 I  -0.367 J   9.068
F150
G1 Z  -3.000
F400
G2 X 269.747 Y -98.866 I   7.117 J  -5.631
G2 X 273.649 Y-102.303 I   0.358 J  -3.527
G2 X 269.747 Y-105.740 I  -3.544 J   0.090
G2 X 262.263 Y-102.303 I  -0.367 J   9.068
F150
G1 Z   5.000
G0 Z  20.000 
M9 M5
G0 X   0.000 Y   0.000
M2 (Program end)